X:1
T:Alleluia, Sing to Jesus!
T:Text: William C. Dix (1837-18989), alt. Tune: Rowland H. Prichard (1811-1887); arr. Ralph Vaughan Williams (1872-1958)
T:87 87D HYFRYDOL www.hymnary.org/text/alleluia_sing_to_jesus_his_the_scepter
T:Alleluia, Sing to Jesus!
T:This hymn is in the public domain.  You may freely use this score for personal and congregational worship.  If you reproduce the score, please credit Hymnary.org as the source. 
T:This hymn is in the public domain.  You may freely use this score for personal and congregational worship.  If you reproduce the score, please credit Hymnary.org as the source. 
Z:This hymn is in the public domain.  You may freely use this score for personal and congregational worship.  If you reproduce the score, please credit Hymnary.org as the source.
%%score ( 1 2 ) ( 3 4 )
L:1/8
M:3/4
K:F
V:1 treble nm="Piano" snm="Pno."
V:2 treble 
V:3 bass nm="Piano" snm="Pno."
V:4 bass 
V:1
 [CF]4 [EG]2 | (F3 G) [FA]2 | [GB]4 [FA]2 | ((([EG]2 [DF]2))) [EG]2 | c4 B2 | [FA]4 A2 | %6
w: 3~Al- le-|lu- * ia!|hea- venly|High _ Priest,|her on|earth our|
w: 1~Al- le-|lu- * ia,|sing to|Je- * sus!|his the|scep- ter,|
w: 2~Al- le-|lu- * ia!|not as|or- * phans|are we|left in|
 (G2 F2) [EG]2 | F6 | [CF]4 [EG]2 | (F3 G) [FA]2 | [GB]4 [FA]2 | (([EG]2 [DF]2)) [EG]2 | c4 B2 | %13
w: help, _ our|stay;|Al- le-|lu- * ia!|hear the|sin- * ful|cry to|
w: his _ the|throne:|Al- le-|lu- * ia!|his the|tri- * umph,|his the|
w: sor- * row|now;|Al- le-|lu- * ia!|he is|near _ us;|faith be-|
 [FA]4 A2 | (G2 F2) [EG]2 | F6 | [Ec]4 [Ec]2 | (c2 B2) [FA]2 | B4 [DB]2 | (([EB]2 [FA]2)) [CG]2 | %20
w: you from|day _ to|day.|In- ter-|ces- * sor,|Friend of|sin- * ners,|
w: vic- to-|ry _ a-|lone.|Hark! the|songs _ of|peace- ful|Zi- * on|
w: lieves nor|ques- * tions|how.|Though the|cloud _ from|sight re-|ceived _ him|
 [CA]4 [FA]2 | (([FA]2 [GB]2)) [Ac]2 | (([Ac]2 [GB]2)) [FA]2 | G6 | (c2 A2) [Ac]2 | (B2 G2) [GB]2 | %26
w: earth's Re-|dee- * mer,|hear _ our|plea,|where _ the|songs _ of|
w: thun- der|like _ a|migh- * ty|flood.|Je- * sus,|out _ of|
w: when the|for- * ty|days _ were|o'er,|shall _ our|hearts _ for-|
 (([FA]2 [CF]2)) [FA]2 | (GA BA [CG]2) | c4 [_Ec]2 | (([Dd]2 [Fc]2)) [FB]2 | [FA]4 [EG]2 | F6 |] %32
w: all _ the|sin- * * * less|sweep a-|cross _ the|crys- tal|sea.|
w: e- * very|na- * * * tion,|has re-|deemed _ us|by his|blood.|
w: get _ his|pro- * * * mise,|"I am|with _ you|ev- er-|more?|
V:2
 x6 | F4 x2 | x6 | x6 | (F2 C2) DE | x4 FE | D4 x2 | F6 | x6 | F4 x2 | x6 | x6 | (F2 C2) DE | %13
 x4 FE | D4 x2 | F6 | x6 | F4 x2 | (F2 E2) x2 | x6 | x6 | x6 | x6 | (F4 E2) | F4 x2 | G4 x2 | x6 | %27
 (GE F2) x2 | (C2 F2) x2 | x6 | x6 | F6 |] %32
V:3
 A,4 [C,G,]2 | (A,3 B,) [F,C]2 | (([F,D]2 [E,C]2)) [F,C]2 | (([C,C]2 [D,A,]2)) [C,C]2 | %4
 [A,C]4 [G,C]2 | [F,C]4 [A,,C]2 | (([B,,B,]2 [D,A,]2)) [C,C]2 | [F,A,]6 | A,4 [C,G,]2 | %9
 (A,3 B,) [F,C]2 | (([F,D]2 [E,C]2)) [F,C]2 | (([C,C]2 [D,A,]2)) [C,C]2 | [A,C]4 [G,C]2 | %13
 [F,C]4 [A,,C]2 | (([B,,B,]2 [D,A,]2)) [C,C]2 | [F,A,]6 | [A,C]4 [A,C]2 | (F,2 G,2) [D,A,]2 | %18
 G,4 G,2 | (([C,G,]2 [D,C]2)) [E,B,]2 | [F,A,]4 [E,C]2 | [D,D]4 [A,,C]2 | [G,,D]4 [B,,D]2 | %23
 [C,G,]6 | [A,C]4 [F,D]2 | D4 [E,C]2 | ([F,C]2 [E,A,]2) [D,=B,]2 | (C2 _B,2) B,2 | %28
 [F,A,]4 [A,,C]2 | (([B,,B,]2 [A,,C]2)) [B,,D]2 | [C,C]4 [C,B,]2 | [F,A,]6 |] %32
V:4
 (F,,2 A,,2) x2 | F,4 x2 | x6 | x6 | x6 | x6 | x6 | x6 | (F,,2 A,,2) x2 | F,4 x2 | x6 | x6 | x6 | %13
 x6 | x6 | x6 | x6 | D,4 x2 | G,4 G,2 | x6 | x6 | x6 | x6 | x6 | x6 | F,2 E,D, x2 | x6 | %27
 (E,C, D,2) E,2 | x6 | x6 | x6 | x6 |] %32

